X:158
T:New Charms of the Fair. VWMLa.158
%%VWML:Anon2-3049-p97-0
F:http://www.vwml.org/record/Anon2/3049/p97
S:Anon. MS, late 18thC, Vaughan Williams Mem. Library
O:England;Yorkshire
Z:vmp/efdss.Simon Wilson. Reviewed PJH 2008.
M:2/4
L:1/8
Q:1/4=100
K:D
a/g/|fddA|{c}B2Ad|cdgf|e/d/e/f/ ea/g/|\
fddA|{c}B2Ad|cd (f/e/).d/.c/|d3:|
|:e|{g}f2ea|{g}f2ea|g/f/e/d/ cd|e/d/c/B/ Ae|\
{g}f2ea|{g}f2ea|f/a/f/d/ e/g/e/c/|d2z:|
